packages/icons/svgs/solid/Source=ranking.svg

<svg width="12" height="12" viewBox="0 0 12 12" fill="none" xmlns="http://www.w3.org/2000/svg">
<g clip-path="url(#clip0_1457_832)">
<path d="M4.17149 5.28601L4.51574 5.56125L4.79999 4.91475L7.04999 6.60001C7.13157 6.66121 7.22477 6.70513 7.32391 6.72908C7.42304 6.75303 7.52601 6.75652 7.62654 6.73932C7.72706 6.72212 7.82303 6.6846 7.90856 6.62905C7.99409 6.57351 8.06739 6.5011 8.12399 6.41625L11.124 1.91625C11.2344 1.75076 11.2745 1.54819 11.2356 1.3531C11.1966 1.15802 11.0817 0.986401 10.9162 0.876005C10.7507 0.765608 10.5482 0.725476 10.3531 0.764437C10.158 0.803398 9.98638 0.91826 9.87599 1.08375L7.31549 4.92451L4.94999 3.15C4.85979 3.08234 4.75551 3.03589 4.64488 3.0141C4.53426 2.9923 4.42014 2.99573 4.31103 3.02413C4.20191 3.05252 4.1006 3.10516 4.01463 3.17811C3.92867 3.25106 3.86025 3.34246 3.81449 3.4455L3.17249 4.89001C3.53699 4.92171 3.88425 5.05936 4.17149 5.28601Z" fill="black"/>
<path d="M2.34224 8.625H1.51199L0.814493 10.1955C0.774494 10.2855 0.752619 10.3825 0.750119 10.481C0.74762 10.5795 0.764543 10.6775 0.799923 10.7694C0.835304 10.8614 0.888448 10.9454 0.95632 11.0168C1.02419 11.0882 1.10546 11.1455 1.19549 11.1855C1.29127 11.2283 1.39507 11.2503 1.49999 11.25C1.64523 11.2502 1.7874 11.2082 1.90922 11.1291C2.03104 11.05 2.12728 10.9372 2.18624 10.8045L2.94224 9.10425L2.34224 8.625Z" fill="black"/>
<path d="M6.75 10.5C6.57963 10.5001 6.41431 10.4422 6.28125 10.3358L2.73675 7.5H0.75C0.551088 7.5 0.360322 7.42099 0.21967 7.28033C0.0790176 7.13968 0 6.94892 0 6.75C0 6.55109 0.0790176 6.36033 0.21967 6.21967C0.360322 6.07902 0.551088 6 0.75 6H3C3.17037 5.99992 3.33569 6.05785 3.46875 6.16425L6.8115 8.83875L10.1115 6.85725C10.2818 6.75906 10.4838 6.73165 10.6741 6.78092C10.8644 6.83018 11.0277 6.95218 11.129 7.12067C11.2302 7.28915 11.2613 7.49065 11.2155 7.6818C11.1697 7.87296 11.0506 8.03848 10.884 8.14275L7.134 10.3928C7.01802 10.4625 6.88533 10.4996 6.75 10.5Z" fill="black"/>
</g>
<defs>
<clipPath id="clip0_1457_832">
<rect width="12" height="12" fill="white"/>
</clipPath>
</defs>
</svg>

<svg xmlns="http://www.w3.org/2000/svg" width="12" height="12" viewBox="0 0 12 12"><g clip-path="url(#a)"><path d="m4.171 5.286.345.275.284-.646L7.05 6.6a.75.75 0 0 0 1.074-.184l3-4.5a.75.75 0 0 0-1.248-.832l-2.56 3.84L4.95 3.15a.75.75 0 0 0-1.136.296L3.172 4.89c.365.032.712.17 1 .396ZM2.342 8.625h-.83l-.698 1.57a.75.75 0 1 0 1.372.61l.756-1.7-.6-.48Z"/><path d="M6.75 10.5a.75.75 0 0 1-.469-.164L2.737 7.5H.75a.75.75 0 1 1 0-1.5H3a.75.75 0 0 1 .469.164L6.81 8.84l3.3-1.982a.75.75 0 0 1 .773 1.286l-3.75 2.25a.75.75 0 0 1-.384.107Z"/></g><defs><clipPath id="a"><path fill="#fff" d="M0 0h12v12H0z"/></clipPath></defs></svg>
